Obsidian/places/16/folder-tar.svg

<svg viewBox="0 0 16 16" xmlns="http://www.w3.org/2000/svg"><path d="m2 2v12h12v-12zm1 1h4v1h1v-1h5v10h-10zm5 1v1h1v-1zm0 1h-1v1h1zm0 1v1h1v-1zm0 1h-1v1h1zm0 1v1h-1v1h2v-2z" fill="#f2f2f2"/></svg>

<svg xmlns="http://www.w3.org/2000/svg" viewBox="0 0 16 16">
  <defs id="defs3051">
    <style type="text/css" id="current-color-scheme">
      .ColorScheme-Text {
        color:#f2f2f2;
      }
      </style>
  </defs>
    <path 
        style="fill:currentColor;fill-opacity:1;stroke:none" 
        d="M 2 2 L 2 14 L 14 14 L 14 2 L 2 2 z M 3 3 L 7 3 L 7 4 L 8 4 L 8 3 L 13 3 L 13 13 L 3 13 L 3 3 z M 8 4 L 8 5 L 9 5 L 9 4 L 8 4 z M 8 5 L 7 5 L 7 6 L 8 6 L 8 5 z M 8 6 L 8 7 L 9 7 L 9 6 L 8 6 z M 8 7 L 7 7 L 7 8 L 8 8 L 8 7 z M 8 8 L 8 9 L 7 9 L 7 10 L 9 10 L 9 8 L 8 8 z "
          class="ColorScheme-Text"/>
</svg>
